X:241
T:Unfortunate Prentice - Pepperill
%%VWML:SBG-1-2-817-0
F:http://www.vwml.org/record/SBG/1/2/817
Z:Original Sibelius transcriptions by M. & S. Graebe
M:2/4
I:linebreak $
K:G
V:1 treble nm="P1"
V:1
 D | G G G A | _B2 A B | A F E D | G3 A | F G _B d | _B2 A F | A A G F | E3 |$ A | F A c c | %11
 d2 _B G | _B A G F | E2 z E | D G G G | c_B G dc | _B A G A | B2 z x | %18




